assets/icons/qvision/wb_shade.svg

<svg xmlns="http://www.w3.org/2000/svg" height="24" viewBox="0 0 24 24" width="24"><path d="M0 0h24v24H0V0z" fill="none"/><path d="M14 12v2.5l5.5 5.5H22zm0 8h3l-3-3zM8 4l-6 6h2v10h8V10h2L8 4zm1 10H7v-4h2v4z"/></svg>

<svg width="24" height="24" viewBox="0 0 24 24" fill="none" xmlns="http://www.w3.org/2000/svg">
<g clip-path="url(#clip0_147_3785)">
<path d="M14 12V14.5L19.5 20H22L14 12ZM14 20H17L14 17V20ZM8 4L2 10H4V20H12V10H14L8 4ZM9 14H7V10H9V14Z" fill="#323232"/>
</g>
<defs>
<clipPath id="clip0_147_3785">
<rect width="24" height="24" fill="white"/>
</clipPath>
</defs>
</svg>
